svgs/light/toilet-paper-blank-under.svg

<svg xmlns="http://www.w3.org/2000/svg" viewBox="0 0 512 512"><!-- Font Awesome Pro 6.0.0-alpha2 by @fontawesome - https://fontawesome.com License - https://fontawesome.com/license (Commercial License) --><path d="M399.996 112C372.619 112 351.992 146.406 351.992 192S372.619 272 399.996 272C427.371 272 447.998 237.594 447.998 192S427.371 112 399.996 112ZM399.996 240C390.869 240 383.994 219.355 383.994 192C383.994 164.643 390.869 144 399.996 144C409.121 144 415.996 164.643 415.996 192C415.996 219.355 409.121 240 399.996 240ZM512 192C512 85.961 461.855 0 400 0H112C50.145 0 0 85.961 0 192S50.145 384 112 384H400C431.357 384 459.67 361.848 480 326.246V464C480 472.812 472.812 480 464 480H144C135.188 480 128 472.812 128 464V432C128 423.156 120.844 416 112 416S96 423.156 96 432V464C96 490.469 117.531 512 144 512H464C490.469 512 512 490.469 512 464V224C512 221.949 511.537 220.021 510.836 218.221C511.521 209.625 512 200.918 512 192ZM112 352C74.162 352 32 286.291 32 192S74.162 32 112 32H338.141C307.934 66.389 288 125.18 288 192S307.934 317.611 338.141 352H112ZM400 352C362.162 352 320 286.291 320 192S362.162 32 400 32S480 97.709 480 192S437.838 352 400 352Z"/></svg>

<svg xmlns="http://www.w3.org/2000/svg" viewBox="0 0 512 512"><!--! Font Awesome Pro 6.3.0 by @fontawesome - https://fontawesome.com License - https://fontawesome.com/license (Commercial License) Copyright 2023 Fonticons, Inc. --><path d="M399.1 112c-27.38 0-48 34.41-48 80s20.63 80 48 80c27.38 0 48-34.41 48-80S427.4 112 399.1 112zM399.1 240c-9.127 0-15.1-20.64-15.1-48c0-27.36 6.872-48 15.1-48c9.125 0 15.1 20.64 15.1 48C415.1 219.4 409.1 240 399.1 240zM512 192c0-106-50.15-192-112-192H112C50.15 0 0 85.96 0 192s50.15 192 112 192H399.1c31.36 0 59.67-22.15 80-57.75V464c0 8.812-7.188 16-16 16h-320C135.2 480 128 472.8 128 464v-32C128 423.2 120.8 416 112 416S96 423.2 96 432v32C96 490.5 117.5 512 144 512h320c26.47 0 48-21.53 48-48V224c0-2.051-.4629-3.979-1.164-5.779C511.5 209.6 512 200.9 512 192zM112 352C74.16 352 32 286.3 32 192s42.16-160 80-160h226.1c-30.21 34.39-50.14 93.18-50.14 160s19.94 125.6 50.14 160H112zM400 352C362.2 352 320 286.3 320 192s42.16-160 80-160S480 97.71 480 192S437.8 352 400 352z"/></svg>
